X: 8146
T: Cook In The Kitchen, The
R: jig
M: 6/8
K: Gmajor
G2|:E|DGG GAG|=FDE =F2E|DGG GFG|A2 d cAG|
DGG GAG|=FDE =F2 d|cAG FGA|BGF G2:|
|:A|~B3 BAG|~A3 AGF|~G3 GFG|A dd cAG|
~B3 BAG|~A3 A2 d|cAG FGA|BGF G2:|
|:B|d2 e f2g|^gag fed|cAG FGA|BGB AFA|
D2E F2 g|^gag fed|cAG FGA|1 BGF G2:|2 B_BA G2||

